share/hedgewars/Data/Themes/Desert/rock2.svg

<?xml version="1.0" encoding="UTF-8" standalone="no"?>
<!-- Created with Inkscape (http://www.inkscape.org/) -->

<svg
   xmlns:dc="http://purl.org/dc/elements/1.1/"
   xmlns:cc="http://creativecommons.org/ns#"
   xmlns:rdf="http://www.w3.org/1999/02/22-rdf-syntax-ns#"
   xmlns:svg="http://www.w3.org/2000/svg"
   xmlns="http://www.w3.org/2000/svg"
   xmlns:sodipodi="http://sodipodi.sourceforge.net/DTD/sodipodi-0.dtd"
   xmlns:inkscape="http://www.inkscape.org/namespaces/inkscape"
   id="svg2"
   sodipodi:version="0.32"
   inkscape:version="0.47 r22583"
   width="24.427864"
   height="19"
   version="1.0"
   sodipodi:docname="rock2.svg"
   inkscape:output_extension="org.inkscape.output.svg.inkscape"
   inkscape:export-filename="/mnt/y/src/hedge/trunk/share/hedgewars/Data/Themes/Desert/rock2.png"
   inkscape:export-xdpi="90"
   inkscape:export-ydpi="90">
  <metadata
     id="metadata7">
    <rdf:RDF>
      <cc:Work
         rdf:about="">
        <dc:format>image/svg+xml</dc:format>
        <dc:type
           rdf:resource="http://purl.org/dc/dcmitype/StillImage" />
        <dc:title />
      </cc:Work>
    </rdf:RDF>
  </metadata>
  <defs
     id="defs5">
    <inkscape:perspective
       sodipodi:type="inkscape:persp3d"
       inkscape:vp_x="0 : 526.18109 : 1"
       inkscape:vp_y="0 : 1000 : 0"
       inkscape:vp_z="744.09448 : 526.18109 : 1"
       inkscape:persp3d-origin="372.04724 : 350.78739 : 1"
       id="perspective9" />
    <mask
       maskUnits="userSpaceOnUse"
       id="mask3575">
      <path
         style="fill:#ffffff;fill-rule:evenodd;stroke:none"
         d="m 157.33126,60.526906 -2.82843,-10.960155 -9.19239,-16.263456 -1.06066,-8.485282 -6.0104,3.181981 -16.26346,3.18198 -2.82843,5.303301 -10.25305,-4.242641 -9.899491,9.899495 -9.192388,6.717515 -6.010407,-1.06066 -8.485282,5.303301 -6.010407,4.596194 -15.202796,-0.707107 -9.545942,8.485281 -2.12132,6.363961 -3.181981,9.899495 -5.3033,4.949748 -12.727923,10.960155 -3.18198,2.474878 -8.1317281,-2.828432 4.9497471,13.435032 2.828428,5.3033 12.020815,6.01041 21.92031,3.18198 -17.324116,-3.88909 4.949747,-7.07107 12.374369,9.54594 17.67767,0 15.556349,-8.13173 7.778174,-14.14213 10.253052,-18.031224 8.48528,-9.545941 8.13173,-8.485282 23.68807,-4.949747 12.02082,0.353553 0.70711,4.949748 -49.49748,18.384776 15.2028,3.18198 36.06244,-19.445436 1.76777,-4.596194 5.65685,4.949747 -7.07106,31.112699 -4.94975,1.060661 0.35355,5.3033 -56.922094,6.71751 3.535534,-5.65685 13.43503,-3.53553 -4.94975,-2.47488 8.48528,-6.010405 13.08148,-2.121321 6.36396,-7.424621 24.74874,-12.727922 -3.88909,-13.788582 0,1.767767 z"
         id="path3577" />
    </mask>
  </defs>
  <sodipodi:namedview
     inkscape:window-height="953"
     inkscape:window-width="1280"
     inkscape:pageshadow="2"
     inkscape:pageopacity="0.0"
     guidetolerance="10.0"
     gridtolerance="10.0"
     objecttolerance="10.0"
     borderopacity="1.0"
     bordercolor="#666666"
     pagecolor="#ffffff"
     id="base"
     showgrid="false"
     inkscape:zoom="1"
     inkscape:cx="164.38797"
     inkscape:cy="248.43989"
     inkscape:window-x="-4"
     inkscape:window-y="-3"
     inkscape:current-layer="svg2"
     inkscape:window-maximized="1" />
  <path
     sodipodi:nodetypes="czzzzzzz"
     id="path3595"
     d="m 9.2430702,1.9127548 c -2.495271,0.57178 -4.605672,0.956679 -6.317259,3.362132 -1.711587,2.405453 -2.57892004,6.6918922 -0.290306,8.8884122 2.288614,2.19652 5.012051,2.516728 9.0132578,2.679244 4.001207,0.162516 6.553133,-0.2569 9.219925,-1.905231 2.666792,-1.648331 2.961217,-7.0953872 1.205977,-9.7356132 -1.75524,-2.640226 -2.720191,-2.965806 -5.729927,-3.413944 -3.009736,-0.448138 -4.606397,-0.44678 -7.1016678,0.125 z"
     style="fill:#d2c175;fill-opacity:1;stroke:none;stroke-width:2.5;marker:none;visibility:visible;display:inline;overflow:visible;enable-background:accumulate" />
  <path
     style="fill:#eae1bd;fill-opacity:1;fill-rule:evenodd;stroke:#eae1bd;stroke-width:3;stroke-linecap:butt;stroke-linejoin:round;stroke-miterlimit:4;stroke-opacity:1;stroke-dasharray:none;stroke-dashoffset:0;marker:none;visibility:visible;display:inline;overflow:visible;enable-background:accumulate"
     d="M 6.7529902,5.8318358 C 9.8076822,6.0884498 20.141364,5.7019608 18.487089,4.1698918 13.79729,3.6929918 8.0585782,4.9988658 6.7529902,5.8318358 z"
     id="path2395"
     sodipodi:nodetypes="ccc" />
  <path
     style="fill:#bbad71;fill-opacity:1;fill-rule:evenodd;stroke:#bbad71;stroke-width:4;stroke-linecap:butt;stroke-linejoin:round;stroke-miterlimit:4;stroke-opacity:0.8627451;stroke-dasharray:none;stroke-dashoffset:0;marker:none;visibility:visible;display:inline;overflow:visible;enable-background:accumulate"
     d="m 4.3755792,13.147045 c 0.1976,2.201201 15.2143468,2.39221 16.0939118,-0.422427 0.252045,-1.112575 0.833014,-2.8951387 -0.117414,-2.287301 -5.381484,3.357908 -14.7167596,3.284613 -16.2197276,1.500456 -1.1322133,-0.932407 0.2507128,-0.368504 0.2432298,1.209272 z"
     id="path3168"
     sodipodi:nodetypes="ccccc" />
  <path
     style="fill:none;stroke:#352e11;stroke-width:2.5;stroke-linecap:round;stroke-linejoin:round;stroke-miterlimit:4;stroke-opacity:1;stroke-dasharray:none;stroke-dashoffset:0;marker:none;visibility:visible;display:inline;overflow:visible;enable-background:accumulate"
     d="m 8.6685459,2.6640558 c -2.5394649,0.3066149 -4.0311477,0.205378 -5.7427347,2.610831 -1.711587,2.405453 -2.57891964,6.6918922 -0.290306,8.8884122 2.288614,2.19652 5.012051,2.516728 9.0132578,2.679244 4.001207,0.162516 6.553133,-0.2569 9.219925,-1.905231 2.666792,-1.648331 2.430887,-4.841484 1.780501,-8.4981763 -0.650385,-3.656692 -1.96889,-3.6729128 -4.978626,-4.1210508 -3.009736,-0.448138 -6.462552,0.039356 -9.0020171,0.3459709 z"
     id="path2819"
     sodipodi:nodetypes="czzzzzzz" />
</svg>

<?xml version="1.0" encoding="UTF-8" standalone="no"?>
<!-- Created with Inkscape (http://www.inkscape.org/) -->
<svg
   xmlns:dc="http://purl.org/dc/elements/1.1/"
   xmlns:cc="http://creativecommons.org/ns#"
   xmlns:rdf="http://www.w3.org/1999/02/22-rdf-syntax-ns#"
   xmlns:svg="http://www.w3.org/2000/svg"
   xmlns="http://www.w3.org/2000/svg"
   xmlns:sodipodi="http://sodipodi.sourceforge.net/DTD/sodipodi-0.dtd"
   xmlns:inkscape="http://www.inkscape.org/namespaces/inkscape"
   id="svg2"
   sodipodi:version="0.32"
   inkscape:version="0.46"
   width="46.709679"
   height="29.971052"
   version="1.0"
   sodipodi:docname="rock2.svg"
   inkscape:output_extension="org.inkscape.output.svg.inkscape"
   inkscape:export-filename="/home/elric/Desarrollo/hedgewars/themes/Desert/rock2.png"
   inkscape:export-xdpi="90"
   inkscape:export-ydpi="90">
  <metadata
     id="metadata7">
    <rdf:RDF>
      <cc:Work
         rdf:about="">
        <dc:format>image/svg+xml</dc:format>
        <dc:type
           rdf:resource="http://purl.org/dc/dcmitype/StillImage" />
      </cc:Work>
    </rdf:RDF>
  </metadata>
  <defs
     id="defs5">
    <inkscape:perspective
       sodipodi:type="inkscape:persp3d"
       inkscape:vp_x="0 : 526.18109 : 1"
       inkscape:vp_y="0 : 1000 : 0"
       inkscape:vp_z="744.09448 : 526.18109 : 1"
       inkscape:persp3d-origin="372.04724 : 350.78739 : 1"
       id="perspective9" />
    <mask
       maskUnits="userSpaceOnUse"
       id="mask3575">
      <path
         style="fill:#ffffff;fill-rule:evenodd;stroke:none;stroke-width:1px;stroke-linecap:butt;stroke-linejoin:miter;stroke-opacity:1"
         d="M 157.33126,60.526906 L 154.50283,49.566751 L 145.31044,33.303295 L 144.24978,24.818013 L 138.23938,27.999994 L 121.97592,31.181974 L 119.14749,36.485275 L 108.89444,32.242634 L 98.994949,42.142129 L 89.802561,48.859644 L 83.792154,47.798984 L 75.306872,53.102285 L 69.296465,57.698479 L 54.093669,56.991372 L 44.547727,65.476653 L 42.426407,71.840614 L 39.244426,81.740109 L 33.941126,86.689857 L 21.213203,97.650012 L 18.031223,100.12489 L 9.8994949,97.296458 L 14.849242,110.73149 L 17.67767,116.03479 L 29.698485,122.0452 L 51.618795,125.22718 L 34.294679,121.33809 L 39.244426,114.26702 L 51.618795,123.81296 L 69.296465,123.81296 L 84.852814,115.68123 L 92.630988,101.5391 L 102.88404,83.507876 L 111.36932,73.961935 L 119.50105,65.476653 L 143.18912,60.526906 L 155.20994,60.880459 L 155.91705,65.830207 L 106.41957,84.214983 L 121.62237,87.396963 L 157.68481,67.951527 L 159.45258,63.355333 L 165.10943,68.30508 L 158.03837,99.417779 L 153.08862,100.47844 L 153.44217,105.78174 L 96.520076,112.49925 L 100.05561,106.8424 L 113.49064,103.30687 L 108.54089,100.83199 L 117.02617,94.821585 L 130.10765,92.700264 L 136.47161,85.275643 L 161.22035,72.547721 L 157.33126,58.759139 L 157.33126,60.526906 z"
         id="path3577" />
    </mask>
  </defs>
  <sodipodi:namedview
     inkscape:window-height="822"
     inkscape:window-width="804"
     inkscape:pageshadow="2"
     inkscape:pageopacity="0.0"
     guidetolerance="10.0"
     gridtolerance="10.0"
     objecttolerance="10.0"
     borderopacity="1.0"
     bordercolor="#666666"
     pagecolor="#ffffff"
     id="base"
     showgrid="false"
     inkscape:zoom="2"
     inkscape:cx="74.631866"
     inkscape:cy="51.458071"
     inkscape:window-x="292"
     inkscape:window-y="127"
     inkscape:current-layer="svg2" />
  <path
     style="opacity:1;fill:#584d1d;fill-opacity:1;fill-rule:evenodd;stroke:#584d1d;stroke-width:8;stroke-linecap:butt;stroke-linejoin:round;marker:none;marker-start:none;marker-mid:none;marker-end:none;stroke-miterlimit:4;stroke-dasharray:none;stroke-dashoffset:0;stroke-opacity:1;visibility:visible;display:inline;overflow:visible;enable-background:accumulate"
     d="M 16.903226,4 L 5.935484,9.992105 L 4,20.644737 L 5.290323,23.307894 L 18.83871,25.971052 L 38.193549,23.973684 L 42.709678,21.976316 L 41.419355,9.326316 L 25.935484,4 L 16.903226,4 z"
     id="path2391" />
  <path
     id="path2393"
     d="M 17.999709,7.238092 L 10.05929,11.078777 L 8.65804,17.906665 L 9.592207,19.613637 L 19.40096,21.320609 L 33.413463,20.040378 L 36.683048,18.76015 L 35.748881,10.652036 L 24.538877,7.238092 L 17.999709,7.238092 z"
     style="opacity:1;fill:#d2c175;fill-opacity:1;fill-rule:evenodd;stroke:#d2c175;stroke-width:6.00000048;stroke-linecap:butt;stroke-linejoin:round;marker:none;marker-start:none;marker-mid:none;marker-end:none;stroke-miterlimit:4;stroke-dasharray:none;stroke-dashoffset:0;stroke-opacity:1;visibility:visible;display:inline;overflow:visible;enable-background:accumulate" />
  <path
     style="opacity:1;fill:#bbad71;fill-opacity:1;fill-rule:evenodd;stroke:#bbad71;stroke-width:4;stroke-linecap:butt;stroke-linejoin:round;marker:none;marker-start:none;marker-mid:none;marker-end:none;stroke-miterlimit:4;stroke-dasharray:none;stroke-dashoffset:0;stroke-opacity:0.8627451;visibility:visible;display:inline;overflow:visible;enable-background:accumulate"
     d="M 9.369878,19.876613 L 17.362862,22.155937 L 27.649877,22.155937 L 36.829808,20.198565 L 35.979628,16.88377 L 34.906711,13.729287 L 30.598286,14.06544 L 26.095586,11.669431 L 21.529897,13.336449 L 17.152935,14.503336 L 11.213226,17.712108 L 9.681117,15.836713 L 8.376493,18.512774 L 9.369878,19.876613 z"
     id="path3168"
     sodipodi:nodetypes="cccccccccccccc" />
  <path
     style="opacity:1;fill:#eae1bd;fill-opacity:1;fill-rule:evenodd;stroke:#eae1bd;stroke-width:3;stroke-linecap:butt;stroke-linejoin:round;marker:none;marker-start:none;marker-mid:none;marker-end:none;stroke-miterlimit:4;stroke-dasharray:none;stroke-dashoffset:0;stroke-opacity:1;visibility:visible;display:inline;overflow:visible;enable-background:accumulate"
     d="M 21.39972,5.989031 L 18.989396,6.224145 L 17.841624,7.086228 L 10.607414,10.259826 L 11.755187,11.278651 L 15.54051,8.607023 L 19.792838,7.869939 L 22.432716,6.694372 L 24.498708,6.694372 L 21.39972,5.989031 z"
     id="path2395"
     sodipodi:nodetypes="cccccccccc" />
</svg>
